assets/svg/bottomnav/home_active.svg

<svg width="20" height="20" viewBox="0 0 20 20" fill="none" xmlns="http://www.w3.org/2000/svg">
<g clip-path="url(#clip0_1287_10)">
<path d="M11.13 19.376H10.144C9.06097 19.376 8.08897 19.376 7.16297 19.339C6.36568 19.3411 5.5755 19.189 4.83597 18.891C3.55697 18.291 2.98597 16.876 2.55197 15.591C2.17297 14.474 1.71097 13.028 1.17797 11.291C0.880916 10.444 0.695685 9.56192 0.626974 8.66701C0.606719 8.18669 0.686783 7.70742 0.862058 7.25976C1.03733 6.8121 1.30397 6.40588 1.64497 6.06701C2.0459 5.64844 2.47779 5.26068 2.93697 4.90701C4.26197 3.87601 5.62797 2.86401 6.99997 1.90101C7.64732 1.39299 8.37732 1.00025 9.15797 0.740007C9.43831 0.665697 9.72696 0.627389 10.017 0.626007C10.5521 0.629154 11.0784 0.761945 11.551 1.01301C12.1108 1.29862 12.6487 1.62553 13.16 1.99101C14.75 3.12701 16.18 4.19901 17.408 5.17601C17.7856 5.48473 18.1402 5.82062 18.469 6.18101C18.8674 6.62106 19.1484 7.15452 19.286 7.73201C19.4339 8.89584 19.2877 10.0782 18.861 11.171C18.452 12.525 18.019 13.892 17.574 15.233C17.397 15.765 17.195 16.295 16.974 16.808C16.7899 17.2598 16.5402 17.682 16.233 18.061C15.8614 18.4626 15.4093 18.7812 14.9061 18.9959C14.4029 19.2106 13.86 19.3166 13.313 19.307C12.768 19.353 12.061 19.376 11.213 19.376H11.13ZM8.07497 14.062C7.90007 14.0623 7.72703 14.0979 7.5662 14.1666C7.40537 14.2353 7.26006 14.3358 7.13897 14.462C6.89359 14.7127 6.75704 15.0502 6.75897 15.401V15.441C6.75817 15.7922 6.8965 16.1294 7.14369 16.3788C7.39088 16.6283 7.72681 16.7696 8.07797 16.772L11.927 16.765C12.2785 16.7618 12.6144 16.6194 12.8611 16.369C13.1078 16.1186 13.2451 15.7805 13.243 15.429V15.389C13.2438 15.0378 13.1054 14.7006 12.8583 14.4512C12.6111 14.2018 12.2751 14.0604 11.924 14.058L8.07797 14.065L8.07497 14.062Z" fill="#F83535"/>
<path d="M10.018 1.25101C10.4546 1.2545 10.8838 1.36361 11.269 1.56901C11.8018 1.84123 12.3135 2.15276 12.8 2.50101C14.381 3.63101 15.8 4.69601 17.023 5.66601C17.3711 5.95344 17.6976 6.26594 18 6.60101C18.3292 6.96523 18.5613 7.40646 18.675 7.88401C18.7899 8.93873 18.6471 10.0056 18.259 10.993C17.852 12.342 17.42 13.703 16.977 15.039C16.807 15.553 16.611 16.066 16.396 16.562C16.2364 16.9565 16.0198 17.3254 15.753 17.657C15.433 17.9958 15.0446 18.2629 14.6136 18.4404C14.1827 18.618 13.7189 18.702 13.253 18.687C12.725 18.731 12.035 18.753 11.205 18.753H10.148C9.06903 18.753 8.10203 18.753 7.18603 18.716C6.47238 18.7181 5.76472 18.5858 5.10003 18.326C4.15003 17.884 3.63203 16.834 3.14403 15.394C2.76703 14.283 2.30703 12.842 1.77503 11.113C1.4953 10.3189 1.31885 9.49212 1.25003 8.65301C1.23112 8.25366 1.2971 7.85484 1.44362 7.48286C1.59014 7.11088 1.81386 6.77419 2.10003 6.49501C2.47873 6.10031 2.88654 5.73461 3.32003 5.40101C4.63703 4.37601 6.00003 3.36901 7.35903 2.40701C7.94726 1.94563 8.60879 1.5863 9.31603 1.34401C9.54448 1.28346 9.7797 1.25221 10.016 1.25101M8.07803 17.395L11.924 17.388C12.4412 17.3843 12.9358 17.1757 13.2995 16.8079C13.6632 16.4402 13.8662 15.9432 13.864 15.426V15.386C13.864 14.8692 13.6594 14.3735 13.295 14.0071C12.9305 13.6408 12.4358 13.4337 11.919 13.431L8.07303 13.438C7.55584 13.442 7.06131 13.6508 6.69785 14.0188C6.33439 14.3868 6.13163 14.8838 6.13403 15.401V15.441C6.13376 15.9577 6.33814 16.4534 6.70245 16.8198C7.06676 17.1862 7.56136 17.3934 8.07803 17.396M10.018 0.00100708C9.67437 0.00205291 9.33226 0.0470855 9.00003 0.135007C8.14548 0.410398 7.34599 0.833839 6.63803 1.38601C5.25336 2.36334 3.8917 3.37234 2.55303 4.41301C2.07045 4.78401 1.6165 5.19083 1.19503 5.63001C0.796081 6.02898 0.483972 6.50616 0.27832 7.03156C0.0726688 7.55696 -0.0220798 8.11923 2.95646e-05 8.68301C0.0694159 9.63615 0.264437 10.576 0.58003 11.478C1.11803 13.2267 1.57803 14.6647 1.96003 15.792C2.45103 17.244 3.10003 18.77 4.57203 19.456C5.38817 19.7861 6.25968 19.9578 7.14003 19.962C8.10003 20.001 9.11403 20.001 10.148 20.001H11.211C12.0777 20.001 12.7954 19.9773 13.364 19.93C13.9919 19.9308 14.6132 19.8013 15.1884 19.5497C15.7637 19.298 16.2805 18.9297 16.706 18.468C17.054 18.0411 17.3374 17.5653 17.547 17.056C17.7777 16.5227 17.9847 15.9803 18.168 15.429C18.6167 14.0757 19.0474 12.7163 19.46 11.351C19.9244 10.1524 20.0735 8.8547 19.893 7.58201C19.7299 6.90544 19.4007 6.28023 18.935 5.76301C18.5839 5.37577 18.2045 5.01512 17.8 4.68401C16.5567 3.69601 15.132 2.62934 13.526 1.48401C12.9894 1.09947 12.4248 0.755516 11.837 0.455007C11.2755 0.160914 10.6519 0.00525847 10.018 0.00100708ZM8.07803 16.145C7.98602 16.1442 7.89506 16.1253 7.81037 16.0893C7.72568 16.0534 7.64891 16.0011 7.58445 15.9354C7.51999 15.8697 7.46911 15.792 7.43472 15.7067C7.40033 15.6213 7.38311 15.53 7.38403 15.438V15.401C7.38271 15.3089 7.39957 15.2175 7.43366 15.1319C7.46775 15.0463 7.51838 14.9683 7.58267 14.9024C7.64695 14.8364 7.72362 14.7838 7.80829 14.7475C7.89295 14.7113 7.98393 14.692 8.07603 14.691L11.922 14.684C12.014 14.6848 12.105 14.7037 12.1897 14.7397C12.2744 14.7756 12.3512 14.828 12.4156 14.8936C12.4801 14.9593 12.5309 15.037 12.5653 15.1224C12.5997 15.2077 12.617 15.299 12.616 15.391V15.431C12.6174 15.5231 12.6005 15.6146 12.5664 15.7001C12.5323 15.7857 12.4817 15.8637 12.4174 15.9296C12.3531 15.9956 12.2764 16.0482 12.1918 16.0845C12.1071 16.1208 12.0161 16.14 11.924 16.141L8.07803 16.148V16.145Z" fill="black"/>
</g>
<defs>
<clipPath id="clip0_1287_10">
<rect width="20" height="20" fill="white"/>
</clipPath>
</defs>
</svg>

<svg id="home_active" xmlns="http://www.w3.org/2000/svg" width="20" height="20" viewBox="0 0 20 20">
  <rect id="back" width="20" height="20" transform="translate(0)" fill="none"/>
  <path id="Path_23940" data-name="Path 23940" d="M11.13,19.375h-.986c-1.083,0-2.055,0-2.981-.037a6.183,6.183,0,0,1-2.327-.448c-1.279-.6-1.85-2.015-2.284-3.3-.379-1.117-.841-2.563-1.374-4.3A10.314,10.314,0,0,1,.627,8.666a3.46,3.46,0,0,1,1.018-2.6A11.539,11.539,0,0,1,2.937,4.906C4.262,3.875,5.628,2.863,7,1.9A7.167,7.167,0,0,1,9.158.739a3.416,3.416,0,0,1,.859-.114,3.311,3.311,0,0,1,1.534.387,12.662,12.662,0,0,1,1.609.978c1.59,1.136,3.02,2.208,4.248,3.185A10.017,10.017,0,0,1,18.469,6.18a3.529,3.529,0,0,1,.817,1.551,7.021,7.021,0,0,1-.425,3.439c-.409,1.354-.842,2.721-1.287,4.062-.177.532-.379,1.062-.6,1.575a4.963,4.963,0,0,1-.741,1.253,3.885,3.885,0,0,1-2.92,1.246c-.545.046-1.252.069-2.1.069H11.13ZM8.075,14.061a1.3,1.3,0,0,0-.936.4,1.332,1.332,0,0,0-.38.939v.04a1.328,1.328,0,0,0,1.319,1.331l3.849-.007a1.328,1.328,0,0,0,1.316-1.336v-.04a1.328,1.328,0,0,0-1.319-1.331h0l-3.846.007Z" transform="translate(0 0.001)" fill="#00b2ca"/>
  <path id="Home" d="M10.018,1.25a2.705,2.705,0,0,1,1.251.318A12.048,12.048,0,0,1,12.8,2.5c1.581,1.13,3,2.195,4.223,3.165A9.259,9.259,0,0,1,18,6.6a2.924,2.924,0,0,1,.675,1.283,6.558,6.558,0,0,1-.416,3.109c-.407,1.349-.839,2.71-1.282,4.046-.17.514-.366,1.027-.581,1.523a4.348,4.348,0,0,1-.643,1.095,3.293,3.293,0,0,1-2.5,1.03c-.528.044-1.218.066-2.048.066H10.148c-1.079,0-2.046,0-2.962-.037a5.685,5.685,0,0,1-2.086-.39c-.95-.442-1.468-1.492-1.956-2.932-.377-1.111-.837-2.552-1.369-4.281a9.82,9.82,0,0,1-.525-2.46A2.828,2.828,0,0,1,2.1,6.494,10.923,10.923,0,0,1,3.32,5.4C4.637,4.375,6,3.368,7.359,2.406A6.678,6.678,0,0,1,9.316,1.343a2.788,2.788,0,0,1,.7-.093M8.078,17.394h0l3.846-.007a1.954,1.954,0,0,0,1.94-1.962v-.04a1.955,1.955,0,0,0-1.945-1.955h0l-3.846.007A1.954,1.954,0,0,0,6.134,15.4v.04a1.954,1.954,0,0,0,1.944,1.955M10.018,0A4.027,4.027,0,0,0,9,.134,7.662,7.662,0,0,0,6.638,1.385Q4.561,2.851,2.553,4.412A12.124,12.124,0,0,0,1.195,5.629,4.091,4.091,0,0,0,0,8.682a10.849,10.849,0,0,0,.58,2.795q.807,2.623,1.38,4.314c.491,1.452,1.14,2.978,2.612,3.664a6.938,6.938,0,0,0,2.568.506C8.1,20,9.114,20,10.148,20h1.063q1.3,0,2.153-.071a4.537,4.537,0,0,0,3.342-1.462,5.62,5.62,0,0,0,.841-1.412q.346-.8.621-1.627.673-2.03,1.292-4.078a7.514,7.514,0,0,0,.433-3.769,4.184,4.184,0,0,0-.958-1.819A10.571,10.571,0,0,0,17.8,4.683q-1.865-1.482-4.274-3.2A13.27,13.27,0,0,0,11.837.454,3.978,3.978,0,0,0,10.018,0ZM8.078,16.144a.7.7,0,0,1-.694-.707V15.4a.7.7,0,0,1,.692-.71l3.846-.007h0a.7.7,0,0,1,.694.707v.04a.7.7,0,0,1-.692.71l-3.846.007Z" transform="translate(0 0.001)"/>
</svg>
